!!!COM: Claude Debussy
!!!CNT: Francais
!!!TXO: Francais
!!!OTL: L'e/chelonnement des haies
!!!LYR: Paul Verlaine
!!!OPR: Trois Me/lodies
!!!ONM: No. 3
!!!ENC: Jacob Pegg
!!!YOR: Claude Debussy: Songs 1880-1904, Edited by Rita Benton
!!!YOR: New York: Dover publications, inc., 1981
!!!YOR: ISBN 0-486-24131-9
!!!ODT: 1891/
!!NB: Vocal melody and text only encoded.
!!NB: First instance of melodic material only encoded.
**kern	**silbe
*clef G2	*
*k[f#c#g#d#]	*
*M4/4	*
*MM[con moto]	*
!! Assez vif et gaiement
!!created: 7/22/03 13:29
!!last edit: 7/22/03 14:41
!!notes in: 19. Words in: 6. Notes chk: 6. Wrd chk: 10
!!total edit time: 41 min.
=4	=4
1r	.
=5	=5
8r	.
{8b	{L'e/-
12cc#	-che-
12cc#	-lon-
12cc#	-ne-
8ee	-ment
8ee	des
8cc#	haies
8cc#	Mou-
=6	=6
8b	-tonne
8b	a\
8cc#	l'in-
8cc#	-fi-
4ee}	-ni,}
{(4dd#	{mer
=7	=7
8ff#	Clai-
8b	-re
8cc#	dans
8ddn	le
8b	brouil-
8f#	-lard
[4f#)	clair
=8	=8
8f#]}	|}
8r	.
{8g#	{Qui
8g#	sent
8f#	bon
8f#	les
8g#	jeu-
8g#	-nes
=9	=9
*M3/4	*
4g#}	baies.}
4r	.
4r	.
=10	=10
4r	.
4r	.
4r	.
=11	=11
2r	.
4r	.
=12	=12
*M4/4	*
8r	.
{8a#	{Des
8cc#	ar-
8cc#	-bres
12dd#	et
12dd#	des
12dd#	mou-
8ff#	-lins
8ff#	Sont
=13	=13
8dd#	le/-
8dd#	-gers
12cc#	sur
12a#	le
12cc#	vert
(4dd#	ten-
4cc#)}	-dre,}
=14	=14
{4cc#	{Ou\
8b	vient
8b	s'e/-
12cc#	-bat-
12ddn	-tre et
12cc#	s'e/-
8cc#	-ten-
8b	-dre
=15	=15
12gn	L'a-
12gn	-gi-
12gn	-li-
12gn	-te/
12gn	des
12gn	pou-
4gn}	-lains.}
4r	.
=16	=16
2r	.
4r	.
{8fn	{Dans
8fn	ce
=17	=17
8gn	va-
8gn	-gue
8b-	d'un
8b-	Di-
4ccn	-man-
8b-	-che,
8ccn	Voi-
=18	=18
4ee-	-ci
8b-	se
8b-	jou-
8ee-	-er
8ee-	aus-
4b-}	-si}
=19	=19
8r	.
{8b-	{De
12a-	gran-
12g-	-des
12a-	bre-
4b-	-bis,
8ccn	aus-
8ccn	-si
=20	=20
12ddn	Dou-
12ddn	-ces
12ddn	que
12ccn	leur
12b-	lai-
12ccn	-ne
4ddn	blan-
4b-}	-che.}
=21	=21
*M3/4	*
4r	.
2r	.
=22	=22
2r	.
{8g#	{Tout
8b	a\
=23	=23
4cc#	l'heu-
8b	-re
8g#	de/-
8b	-fer-
8dd#	-lait
=24	=24
[4cc#	L'on-
8cc#]}	-de}
8r	.
{4dd#	{rou-
=25	=25
(4.ff#	-le/-
8dd#)	-e
8cc#	en
8b	vo-
=26	=26
4g#	-lu-
4e#}	-tes}
{4g#	{De
=27	=27
2a	clo-
4f#	-ches
=28	=28
4f#	com-
4a	-me
4cc#	des
=29	=29
2g#	flu^-
[4g#	-tes
=30	=30
4g#]}	|}
{4g#	{Dans
4b#	le
=31	=31
2.g#	ciel
=32	=32
4g#	com-
4g#	-me
4b	du
=33	=33
[2.g#	lait.
=34	=34
2g#]}	|}
4r	.
*-	*-
